app/dist/common/images/hachijuni-bank-ltd-the.svg

<svg height="18" viewBox="0 0 18 18" width="18" xmlns="http://www.w3.org/2000/svg"><path d="m0 0h18v18h-18z" fill="#f0f3fa"/><path d="m4 6.47 1.25 1.27 1.25 1.26 1.25-1.26 1.25-1.27-.92-.93-1.25-1.24-.31-.3-.11.08c-.07.05-.63.6-1.26 1.24zm5 .03c0 .08.33.43 1.39 1.46l1.07 1.04.9-.85 1.27-1.21.37-.36-.1-.1-.59-.63c-.27-.29-.8-.83-1.17-1.19l-.68-.66-.94.93a14.27 14.27 0 0 0 -1.52 1.57zm.51 5.04v-2h4v4h-4zm-5.51-.04 1.23 1.25c.68.69 1.25 1.25 1.27 1.25s.6-.57 1.27-1.26l1.23-1.26-1.06-1.06a80.29 80.29 0 0 0 -1.26-1.24l-.2-.18-1.24 1.25z" fill="#ef4136"/></svg>

<!-- by TradingView --><svg width="18" height="18" viewBox="0 0 18 18" xmlns="http://www.w3.org/2000/svg"><path fill="#F0F3FA" d="M0 0h18v18H0z"/><path d="m4 6.47 1.25 1.27L6.5 9l1.25-1.26L9 6.47l-.92-.93L6.83 4.3 6.52 4l-.11.08c-.07.05-.63.6-1.26 1.24L4 6.47Zm5 .03c0 .08.33.43 1.39 1.46L11.46 9l.9-.85 1.27-1.21.37-.36-.1-.1-.59-.63c-.27-.29-.8-.83-1.17-1.19L11.46 4l-.94.93A14.27 14.27 0 0 0 9 6.5Zm.51 5.04v-2h4v4h-4v-2ZM4 11.5l1.23 1.25C5.91 13.44 6.48 14 6.5 14c.02 0 .6-.57 1.27-1.26L9 11.48l-1.06-1.06a80.29 80.29 0 0 0-1.26-1.24L6.48 9l-1.24 1.25L4 11.5Z" fill="#EF4136"/></svg>
